images/xml.svg

<svg width="37" height="36" viewBox="0 0 37 36" fill="none" xmlns="http://www.w3.org/2000/svg">
<path d="M37 1.98286L35.9504 0C21.6052 7.7552 9.66548 8.94492 3.67376 8.94492C2.31796 8.94492 1.35579 8.90086 0.787232 8.85679C0.699762 8.85679 0.656026 8.85679 0.568556 8.85679L0 10.9278C6.64775 12.4259 11.2837 15.6426 13.1643 19.9608C10.0154 24.8519 8.70331 29.9192 9.1844 35.339L12.3333 36C15.9196 30.492 17.0567 24.94 15.526 20.2252C20.2057 13.4835 27.9905 7.88739 37 1.98286ZM11.1962 33.8849C11.065 30.0073 11.9835 26.306 13.9953 22.7368C14.4764 26.1297 13.5142 29.9633 11.1962 33.8849ZM14.5638 18.022C12.9894 15.1138 10.2778 12.6903 6.64775 10.9718C11.5024 10.7075 18.4563 9.64994 26.7222 6.52142C21.8676 10.1346 17.669 13.836 14.5638 18.022Z" fill="white"/>
</svg>

<svg width="37" height="36" viewBox="0 0 37 36" fill="none" xmlns="http://www.w3.org/2000/svg"><path d="M37 1.983L35.95 0C21.605 7.755 9.665 8.945 3.674 8.945c-1.356 0-2.318-.044-2.887-.088H.57L0 10.927c6.648 1.499 11.284 4.716 13.164 9.034-3.149 4.89-4.46 9.958-3.98 15.378l3.15.661c3.586-5.508 4.723-11.06 3.192-15.775C20.206 13.483 27.991 7.887 37 1.983zM11.196 33.885c-.131-3.878.787-7.579 2.8-11.148.48 3.393-.482 7.226-2.8 11.148zm3.368-15.863c-1.575-2.908-4.286-5.332-7.916-7.05 4.854-.264 11.808-1.322 20.074-4.45-4.854 3.613-9.053 7.314-12.158 11.5z" fill="#fff"/></svg>
